storage/app/icons/phosphoricons/light/rewind-circle-light.svg

<svg xmlns="http://www.w3.org/2000/svg" fill="currentColor" viewBox="0 0 256 256"><path d="M128 26a102 102 0 1 0 102 102A102.12 102.12 0 0 0 128 26m0 192a90 90 0 1 1 90-90 90.1 90.1 0 0 1-90 90m46.68-131.37a6 6 0 0 0-6.28.57L122 122V92a6 6 0 0 0-9.6-4.8l-48 36a6 6 0 0 0 0 9.6l48 36a6 6 0 0 0 9.6-4.8v-30l46.4 34.8a6 6 0 0 0 9.6-4.8V92a6 6 0 0 0-3.32-5.37M110 152l-32-24 32-24Zm56 0-32-24 32-24Z"/></svg>

<svg xmlns="http://www.w3.org/2000/svg" viewBox="0 0 256 256" fill="currentColor"><path d="M128,26A102,102,0,1,0,230,128,102.12,102.12,0,0,0,128,26Zm0,192a90,90,0,1,1,90-90A90.1,90.1,0,0,1,128,218ZM174.68,86.63a6,6,0,0,0-6.28.57L122,122V92a6,6,0,0,0-9.6-4.8l-48,36a6,6,0,0,0,0,9.6l48,36A6,6,0,0,0,122,164V134l46.4,34.8A6,6,0,0,0,178,164V92A6,6,0,0,0,174.68,86.63ZM110,152,78,128l32-24Zm56,0-32-24,32-24Z"/></svg>
